X:1
T:Clairières dans le ciel
T:Elle était descendue au bas de la prairie
T:Clairières dans le ciel
T:Lili Boulanger
T:1. Elle était descendue au bas de la prairie 
T:Francis Jammes
T:Au Maître GABRIEL FAURÉ
T:Creative Commons copyright waiver (CC0 1.0 Universal)
T:Creative Commons copyright waiver (CC0 1.0 Universal)
T:Creative Commons copyright waiver (CC0 1.0 Universal)
C:Lili Boulanger
Z:Francis Jammes
Z:Creative Commons copyright waiver (CC0 1.0 Universal)
%%score ( 1 2 ) 3
L:1/8
Q:1/4=114
M:4/4
K:E
V:1 treble nm="Chant\nVoice"
V:2 treble 
V:3 treble nm="Piano"
V:1
"^Modéré" z4"^simple et songeur" z!p! B/ B/ B B/ B/ | =d A A3 A A B | B4!>(! E2!>)! z E | %3
w: Elle é- tait des- cen-|due au bas de la prai-|ri- e et,|
!<(! F/ F/ G/ A/ A2- A!<)! A B/ !tenuto!B/ =c/ =d/ | e- e/!>(! =c/ =g2- g!>)! !breath!=d c d | %5
w: com- me la prai\-ri- * e, é- tait tou- te fleu-|ri- e de plan- * tes dont la|
 _B3/2!<(! _A/ =c/ B/!<)! c/ =d/!>(! e2- e!>)!!p! z/ c/ | %6
w: tige aime à pous- ser dans l'eau _ ces|
 =B2- B/ B/ B/ B/ =d- d/ d/ d/ d/ B/ !tenuto!d/ | e4 e2 z2 | %8
w: plan- * tes i- non- dé- es je les a- vais cueil-|li- es|
 z3/2!p! d/ g-g/ z/ z/ f/ e/ f/ =d3/2- d/ | %9
w: Bien- tôt, _ é- tant mou- illé- e,|
 z/ A/ A/ A/!<(! =d3/2 d/ =f3/2 f/ !tenuto!=g/g/!<)! f/ g/ | ^g3!pp! G F3/2 G/ G ^A/ A/ | %11
w: el- le ga- gna le haut de cet\-te * prai- rie|là qui é- tait tou- te fleu-|
 (=c4 =F2) z2 | z4 z2 z/!p! =c/ c/ c/ | =B2 (3^c ^d e B2- B/ c/ d/!>(! e/!>)! | %14
w: ri e.|El- le ri|\- ait et s'é- brou- ait _ a- vec la|
 a4- a (!tenuto!=c !tenuto!=d !tenuto!=f | (=g3/2) g/) =G/!<(! G/ G/ G/!<)! _B2 =c =d | %16
w: * * dé- gin- gan-|dé- e qu'ont les jeu- nes fil- les trop|
!p! (=d4 A2) z2 |"^avec mélancolie, comme dans un souvenir" z2!p! (B B =c2 =d d | e6) (=d e | %19
w: gran- des|El- le‿a- vait le re-|gard qu'ont les|
 =c4 =d2 f2 | !tenuto!e8- | e2) z2 z4 | z4 z2 |] %23
w: fleurs de la-|\- van-|de.||
V:2
 x8 | x8 | x8 | x8 | x8 | x8 | x8 | x8 | x8 | x8 | x8 | x8 | x8 | x8 | e4- e x x2 | x8 | x8 | x8 | %18
w: ||||||||||||||gr- ce||||
 x8 | x8 | x8 | x8 | x6 |] %23
w: |||||
V:3
"^Modéré" z8 | z8 | z8 | z8 | z8 | z8 | z8 | z8 | z8 | z8 | z8 | z8 | z8 | z8 | z8 | z8 | z8 | z8 | %18
 z8 | z8 | z8 | z8 | z4 z2 |] %23

